S/seal.io logo.svg

<?xml version="1.0" ?>
<!-- Created with Inkscape (http://www.inkscape.org/) -->
<svg xmlns="http://www.w3.org/2000/svg" xmlns:svg="http://www.w3.org/2000/svg" viewBox="0 0 1182.6667 337.90668">
	<defs id="defs6">
		<clipPath clipPathUnits="userSpaceOnUse" id="clipPath18">
			<path d="m 2094.48,2033.66 4.38,-4.77 c 3.54,-4 44.9,-50.13 60.7,-71.16 24.34,-32.33 46.87,-63.5 67.24,-97.95 21.99,-37.21 44.67,-76.08 62.28,-116.3 43.1,-98.3 75.62,-205.09 94.77,-326.89 3.38,-21.45 5.42,-78.31 7.57,-133.75 2.34,-59.39 -1.42,-198.48 -2.96,-234.73 -5.61,-131.098 -23.11,-289.641 -59.82,-472.899 100.99,155.809 160.81,313.078 187.3,483.079 14.42,92.27 14.15,119.6 16.65,182.58 2.11,51.78 -2.27,102.14 -7.19,152.39 -2.77,28.45 -6.58,56.66 -11.23,84.57 -4.84,28.61 -10.61,56.98 -17.3,84.93 -52.97,221.17 -162.92,418.85 -299.71,563.94 -0.85,0.88 -5.08,5.69 -5.96,6.53 z" id="path16"/>
		</clipPath>
		<clipPath clipPathUnits="userSpaceOnUse" id="clipPath28">
			<path d="M 0,0 H 8870 V 2534 H 0 Z" id="path26"/>
		</clipPath>
		<clipPath clipPathUnits="userSpaceOnUse" id="clipPath34">
			<path d="m 1275.88,2534.01 c -11.45,-0.23 -23.33,-0.46 -35.64,-0.69 C 575.121,2520.29 78.9609,2002.64 11.1484,1437.66 6.26563,1397.18 0.5,1330.02 0.265625,1307.45 c -0.5,-54.24 -0.613281,-78.16 2.617185,-133.05 C 6.07031,1119.46 27.9453,980.68 51.0117,908.211 74.0781,835.77 79.0391,822.789 86.2656,804.98 115.367,732.672 148.434,668.09 179.07,614.988 240.195,509.148 350.066,386.332 382.402,356.07 406.816,333.199 434.57,309.898 470.52,279.34 578.813,187.41 710.41,114.449 853.574,65.5117 976.977,23.2891 1098.96,3.92188 1215.8,0 h 91.22 c 38.64,1.30859 76.54,4.10938 113.68,8.21875 87.65,9.69145 189.84,32.26175 256.62,58.60155 181.53,71.5387 319.24,207.8277 332.39,222.8207 20.6,-44.02 35.48,-102.61 37.79,-184.61 36.14,66.739 129.25,215.481 163.69,465.289 12.99,93.801 14.15,122.059 17.07,209.102 3.54,105.488 -4.04,225.398 -10.84,289.208 -11.34,106.38 -38.71,274.8 -103.88,439.58 -55.55,122.13 -158.93,252.23 -163.84,258.57 -32.26,41.71 -38.49,63.86 -42.33,84.42 -4.42,24.07 -1.81,67.28 26.22,108.23 27.98,40.9 71.97,114.14 85.61,148.16 10.23,25.45 20.69,51.25 25.57,73.66 2.31,10.65 3.34,20.57 2.46,29.29 -1.5,14.35 -10.61,44.1 -23.72,70.24 -13.11,26.18 -35.87,46.9 -50.82,49.56 -19.38,3.46 -24.15,1.96 -39.87,-9.23 -2.54,-2.35 -8.26,-8.07 -13.8,-13.68 -5.85,-5.93 -24.64,-27.77 -31.07,-34.3 -24.99,-25.49 -55.16,-45.52 -88.46,-58.63 -8.72,-3.42 -52.09,-18.68 -63.85,-22.14 -12.04,-3.58 -52.86,-18.34 -65.01,-21.99 -44.1,-13.3 -102.92,-21.99 -162.58,-49.52 -37.44,-17.3 -62.63,-42.48 -85.5,-62.66 -6.04,-5.35 -11.72,-10.58 -17.03,-15.76 -29.18,-28.07 -53.67,-72.47 -74.27,-114.38 -20.62,-41.86 -28.03,-104.68 -28.26,-149.31 -0.16,-27.64 12.3,-97.96 19.22,-127.98 6.92,-30.1 14.95,-72.05 21.68,-117.34 3.39,-23.02 6,-43.75 6.73,-56.35 3.19,-52.29 8.07,-81.12 5.77,-127.56 -0.58,-10.81 -1.46,-22.49 -2.89,-35.68 -7.53,-70 -22.95,-150.89 -97.99,-280.53 C 1219.02,970.219 1153.75,905.359 1055.75,850.699 924.656,777.461 784.219,755.551 612.488,794.18 c -7.343,1.609 -39.015,12.652 -54.168,18.922 -15.144,6.23 -26.332,17.027 -32.211,25.027 -5.882,7.953 -9.921,16.262 -12.574,27.992 -1.656,7.289 -2.305,15.141 -1.422,23.399 0.383,3.691 0.996,7.691 2.188,11.769 5.844,19.383 18.687,33.949 66.855,66.852 67.821,46.319 121.949,123.099 142.168,195.649 -4.535,-2.66 -15.105,-8.92 -21.027,-12.39 -64.012,-35.94 -141.899,-54.97 -219.899,-42.59 -151.855,24.06 -264.039,146.05 -282.835,291.75 -1.344,10.42 -4.309,41.33 -1.118,76.47 0.657,6.84 1.5,13.72 2.614,20.6 2.652,16.92 6.539,33.33 11.496,49.17 21.875,94.88 54.129,182.88 109.183,277.27 91.035,156.11 180.414,240.54 244.809,297.44 40.98,36.21 162.008,134.4 311.402,190.33 157.731,59.02 240.931,67.55 330.391,73.82 12.42,0.88 71.27,2.42 98.95,1.5 29.68,-0.96 60.09,-2.23 66.59,-2.93 113.75,-12.45 157.19,-24.29 224.32,-43.86 67.12,-19.53 77.65,-28.6 121.25,-45.52 l 97.61,113.38 c -4.15,2.03 -7.3,3.57 -9.53,4.65 -20.3,9.8 -46.17,21.68 -73.01,32.33 -29.98,11.95 -61.28,23.02 -93.61,32.94 -39.98,12.11 -79.35,22.26 -118.14,30.37 -79.69,16.53 -163,25.88 -246.58,25.49 4.58,0.08 9.07,0.2 13.5,0.27 -0.51,0 -1,0.04 -1.47,0.04 -8.8,-0.23 -13.45,-0.31 -12.34,-0.31" id="path32"/>
		</clipPath>
		<clipPath clipPathUnits="userSpaceOnUse" id="clipPath44">
			<path d="m 3301.63,1639.91 c 0,-123.17 50.4,-224.24 149.27,-297.78 69.82,-51.48 147.32,-80.89 292.76,-112.11 267.53,-58.86 279.18,-60.66 337.35,-90.07 60.08,-31.3 96.91,-93.77 96.91,-169.118 0,-137.863 -116.33,-220.594 -310.21,-220.594 -125.98,0 -226.82,38.602 -283.02,108.453 -21.11,25.571 -38.44,72.2 -52.01,139.899 l -281.49,-5.692 c 11.68,-75.386 19.41,-110.296 36.86,-152.589 36.83,-90.071 93.08,-159.93 170.62,-209.559 93.07,-58.809 248.16,-95.57 407.13,-95.57 207.44,0 360.6,45.949 463.36,139.699 79.47,75.359 122.14,181.973 122.14,312.492 0,137.849 -50.4,238.969 -160.93,316.159 -69.77,45.94 -162.85,80.85 -316.01,112.14 -215.21,45.94 -230.7,49.59 -273.38,66.16 -89.15,36.76 -131.82,90.04 -131.82,167.24 0,119.52 114.41,200.37 283.06,200.37 106.65,0 190.49,-33.33 242.36,-88.23 17.41,-18.42 34.44,-52.64 51.09,-102.5 l 284.29,3.24 c -23.26,97.41 -46.51,152.58 -94.99,213.24 -95,121.3 -261.73,185.65 -482.75,185.65 -333.46,0 -550.59,-165.46 -550.59,-420.93 m 4459.44,390.41 V 565.672 H 8870 V 805.789 H 8057.44 V 2030.32 Z m -1124.29,0 c -9.73,-47.83 -566.1,-1414.949 -595.35,-1464.648 h 320.12 c 10.42,51.547 55.94,182.797 136.63,393.75 h 624.68 c 80.66,-222.031 124.91,-353.274 132.72,-393.75 h 320.12 c -27.3,47.859 -589.51,1420.508 -599.27,1464.648 z m 136.32,-315.55 c 5.88,16.41 5.88,16.41 37.29,101.99 21.52,-60.13 27.41,-81.92 35.25,-101.99 l 209.75,-538.8 H 6569.27 Z M 4717.49,2023.02 V 550.441 h 1108.92 v 236.86 H 4990.82 V 1207.77 H 5721 v 227.66 h -728.22 v 365.37 h 814.14 v 229.52 c -59.9,-6.11 -423,-8.57 -1089.43,-7.3" id="path42"/>
		</clipPath>
	</defs>
	<g id="g8" transform="matrix(1.3333333,0,0,-1.3333333,0,337.90667)">
		<g id="g10" transform="scale(0.1)">
			<g id="g12">
				<g id="g14" clip-path="url(#clipPath18)">
					<path d="m 2016.86,497.539 h 593.96 V 2210.89 H 2016.86 V 497.539" id="path20" fill="#3c6abc" fill-opacity="1" fill-rule="nonzero" stroke="none"/>
				</g>
			</g>
			<g id="g22">
				<g id="g24" clip-path="url(#clipPath28)">
					<g id="g30" clip-path="url(#clipPath34)">
						<path d="M -77.6602,-78.3906 H 2306.8 V 2611.98 H -77.6602 V -78.3906" id="path36" fill="#3c6abc" fill-opacity="1" fill-rule="nonzero" stroke="none"/>
					</g>
				</g>
			</g>
			<g id="g38">
				<g id="g40" clip-path="url(#clipPath44)">
					<path d="M 3118.82,402.789 H 9002.44 V 2193.25 H 3118.82 V 402.789" id="path46" fill="#272847" fill-opacity="1" fill-rule="nonzero" stroke="none"/>
				</g>
			</g>
		</g>
	</g>
</svg>

<?xml version="1.0" ?>
<svg xmlns="http://www.w3.org/2000/svg" role="img" viewBox="-23.64 -23.64 1229.28 384.28">
	<defs>
		<clipPath id="a" clipPathUnits="userSpaceOnUse">
			<path d="M 2094.48,2033.66 L 2098.86,2028.89 C 2102.4,2024.89 2143.76,1978.76 2159.56,1957.73 C 2183.9,1925.4 2206.43,1894.23 2226.8,1859.78 C 2248.79,1822.57 2271.47,1783.7 2289.08,1743.48 C 2332.18,1645.18 2364.7,1538.39 2383.85,1416.59 C 2387.23,1395.14 2389.27,1338.28 2391.42,1282.84 C 2393.76,1223.45 2390.0,1084.36 2388.46,1048.11 C 2382.85,917.012 2365.35,758.469 2328.64,575.211 C 2429.63,731.02 2489.45,888.289 2515.94,1058.29 C 2530.36,1150.56 2530.09,1177.89 2532.59,1240.87 C 2534.7,1292.65 2530.32,1343.01 2525.4,1393.26 C 2522.63,1421.71 2518.82,1449.92 2514.17,1477.83 C 2509.33,1506.44 2503.56,1534.81 2496.87,1562.76 C 2443.9,1783.93 2333.95,1981.61 2197.16,2126.7 C 2196.31,2127.58 2192.08,2132.39 2191.2,2133.23 L 2094.48,2033.66"/>
		</clipPath>
		<clipPath id="b" clipPathUnits="userSpaceOnUse">
			<path d="M 0.0,0.0 L 8870.0,0.0 L 8870.0,2534.0 L 0.0,2534.0 L 0.0,0.0"/>
		</clipPath>
		<clipPath id="c" clipPathUnits="userSpaceOnUse">
			<path d="M 1275.88,2534.01 C 1264.43,2533.78 1252.55,2533.55 1240.24,2533.32 C 575.121,2520.29 78.9609,2002.64 11.1484,1437.66 C 6.26563,1397.18 0.5,1330.02 0.26562,1307.45 C -0.23438,1253.21 -0.34766,1229.29 2.88281,1174.4 C 6.07031,1119.46 27.9453,980.68 51.0117,908.211 C 74.0781,835.77 79.0391,822.789 86.2656,804.98 C 115.367,732.672 148.434,668.09 179.07,614.988 C 240.195,509.148 350.066,386.332 382.402,356.07 C 406.816,333.199 434.57,309.898 470.52,279.34 C 578.813,187.41 710.41,114.449 853.574,65.5117 C 976.977,23.2891 1098.96,3.92188 1215.8,0.0 L 1307.02,0.0 C 1345.66,1.30859 1383.56,4.10938 1420.7,8.21875 C 1508.35,17.9102 1610.54,40.4805 1677.32,66.8203 C 1858.85,138.359 1996.56,274.648 2009.71,289.641 C 2030.31,245.621 2045.19,187.031 2047.5,105.031 C 2083.64,171.77 2176.75,320.512 2211.19,570.32 C 2224.18,664.121 2225.34,692.379 2228.26,779.422 C 2231.8,884.91 2224.22,1004.82 2217.42,1068.63 C 2206.08,1175.01 2178.71,1343.43 2113.54,1508.21 C 2057.99,1630.34 1954.61,1760.44 1949.7,1766.78 C 1917.44,1808.49 1911.21,1830.64 1907.37,1851.2 C 1902.95,1875.27 1905.56,1918.48 1933.59,1959.43 C 1961.57,2000.33 2005.56,2073.57 2019.2,2107.59 C 2029.43,2133.04 2039.89,2158.84 2044.77,2181.25 C 2047.08,2191.9 2048.11,2201.82 2047.23,2210.54 C 2045.73,2224.89 2036.62,2254.64 2023.51,2280.78 C 2010.4,2306.96 1987.64,2327.68 1972.69,2330.34 C 1953.31,2333.8 1948.54,2332.3 1932.82,2321.11 C 1930.28,2318.76 1924.56,2313.04 1919.02,2307.43 C 1913.17,2301.5 1894.38,2279.66 1887.95,2273.13 C 1862.96,2247.64 1832.79,2227.61 1799.49,2214.5 C 1790.77,2211.08 1747.4,2195.82 1735.64,2192.36 C 1723.6,2188.78 1682.78,2174.02 1670.63,2170.37 C 1626.53,2157.07 1567.71,2148.38 1508.05,2120.85 C 1470.61,2103.55 1445.42,2078.37 1422.55,2058.19 C 1416.51,2052.84 1410.83,2047.61 1405.52,2042.43 C 1376.34,2014.36 1351.85,1969.96 1331.25,1928.05 C 1310.63,1886.19 1303.22,1823.37 1302.99,1778.74 C 1302.83,1751.1 1315.29,1680.78 1322.21,1650.76 C 1329.13,1620.66 1337.16,1578.71 1343.89,1533.42 C 1347.28,1510.4 1349.89,1489.67 1350.62,1477.07 C 1353.81,1424.78 1358.69,1395.95 1356.39,1349.51 C 1355.81,1338.7 1354.93,1327.02 1353.5,1313.83 C 1345.97,1243.83 1330.55,1162.94 1255.51,1033.3 C 1219.02,970.219 1153.75,905.359 1055.75,850.699 C 924.656,777.461 784.219,755.551 612.488,794.18 C 605.145,795.789 573.473,806.832 558.32,813.102 C 543.176,819.332 531.988,830.129 526.109,838.129 C 520.227,846.082 516.188,854.391 513.535,866.121 C 511.879,873.41 511.23,881.262 512.113,889.52 C 512.496,893.211 513.109,897.211 514.301,901.289 C 520.145,920.672 532.988,935.238 581.156,968.141 C 648.977,1014.46 703.105,1091.24 723.324,1163.79 C 718.789,1161.13 708.219,1154.87 702.297,1151.4 C 638.285,1115.46 560.398,1096.43 482.398,1108.81 C 330.543,1132.87 218.359,1254.86 199.563,1400.56 C 198.219,1410.98 195.254,1441.89 198.445,1477.03 C 199.102,1483.87 199.945,1490.75 201.059,1497.63 C 203.711,1514.55 207.598,1530.96 212.555,1546.8 C 234.43,1641.68 266.684,1729.68 321.738,1824.07 C 412.773,1980.18 502.152,2064.61 566.547,2121.51 C 607.527,2157.72 728.555,2255.91 877.949,2311.84 C 1035.68,2370.86 1118.88,2379.39 1208.34,2385.66 C 1220.76,2386.54 1279.61,2388.08 1307.29,2387.16 C 1336.97,2386.2 1367.38,2384.93 1373.88,2384.23 C 1487.63,2371.78 1531.07,2359.94 1598.2,2340.37 C 1665.32,2320.84 1675.85,2311.77 1719.45,2294.85 L 1817.06,2408.23 C 1812.91,2410.26 1809.76,2411.8 1807.53,2412.88 C 1787.23,2422.68 1761.36,2434.56 1734.52,2445.21 C 1704.54,2457.16 1673.24,2468.23 1640.91,2478.15 C 1600.93,2490.26 1561.56,2500.41 1522.77,2508.52 C 1443.08,2525.05 1359.77,2534.4 1276.19,2534.01 C 1280.77,2534.09 1285.26,2534.21 1289.69,2534.28 C 1289.18,2534.28 1288.69,2534.32 1288.22,2534.32 C 1279.42,2534.09 1274.77,2534.01 1275.88,2534.01"/>
		</clipPath>
		<clipPath id="d" clipPathUnits="userSpaceOnUse">
			<path d="M 3301.63,1639.91 C 3301.63,1516.74 3352.03,1415.67 3450.9,1342.13 C 3520.72,1290.65 3598.22,1261.24 3743.66,1230.02 C 4011.19,1171.16 4022.84,1169.36 4081.01,1139.95 C 4141.09,1108.65 4177.92,1046.18 4177.92,970.832 C 4177.92,832.969 4061.59,750.238 3867.71,750.238 C 3741.73,750.238 3640.89,788.84 3584.69,858.691 C 3563.58,884.262 3546.25,930.891 3532.68,998.59 L 3251.19,992.898 C 3262.87,917.512 3270.6,882.602 3288.05,840.309 C 3324.88,750.238 3381.13,680.379 3458.67,630.75 C 3551.74,571.941 3706.83,535.18 3865.8,535.18 C 4073.24,535.18 4226.4,581.129 4329.16,674.879 C 4408.63,750.238 4451.3,856.852 4451.3,987.371 C 4451.3,1125.22 4400.9,1226.34 4290.37,1303.53 C 4220.6,1349.47 4127.52,1384.38 3974.36,1415.67 C 3759.15,1461.61 3743.66,1465.26 3700.98,1481.83 C 3611.83,1518.59 3569.16,1571.87 3569.16,1649.07 C 3569.16,1768.59 3683.57,1849.44 3852.22,1849.44 C 3958.87,1849.44 4042.71,1816.11 4094.58,1761.21 C 4111.99,1742.79 4129.02,1708.57 4145.67,1658.71 L 4429.96,1661.95 C 4406.7,1759.36 4383.45,1814.53 4334.97,1875.19 C 4239.97,1996.49 4073.24,2060.84 3852.22,2060.84 C 3518.76,2060.84 3301.63,1895.38 3301.63,1639.91 M 7761.07,2030.32 L 7761.07,565.672 L 8870.0,565.672 L 8870.0,805.789 L 8057.44,805.789 L 8057.44,2030.32 L 7761.07,2030.32 M 6636.78,2030.32 C 6627.05,1982.49 6070.68,615.371 6041.43,565.672 L 6361.55,565.672 C 6371.97,617.219 6417.49,748.469 6498.18,959.422 L 7122.86,959.422 C 7203.52,737.391 7247.77,606.148 7255.58,565.672 L 7575.7,565.672 C 7548.4,613.531 6986.19,1986.18 6976.43,2030.32 L 6636.78,2030.32 M 6773.1,1714.77 C 6778.98,1731.18 6778.98,1731.18 6810.39,1816.76 C 6831.91,1756.63 6837.8,1734.84 6845.64,1714.77 L 7055.39,1175.97 L 6569.27,1175.97 L 6773.1,1714.77 M 4717.49,2023.02 L 4717.49,550.441 L 5826.41,550.441 L 5826.41,787.301 L 4990.82,787.301 L 4990.82,1207.77 L 5721.0,1207.77 L 5721.0,1435.43 L 4992.78,1435.43 L 4992.78,1800.8 L 5806.92,1800.8 L 5806.92,2030.32 C 5747.02,2024.21 5383.92,2021.75 4717.49,2023.02"/>
		</clipPath>
	</defs>
	<g transform="matrix(1.33333 0 0 -1.33333 0 337.907) scale(.1)">
		<g clip-path="url(#a)">
			<path fill="#3c6abc" fill-opacity="1" fill-rule="nonzero" stroke="none" d="M 2016.86,497.539 L 2610.82,497.539 L 2610.82,2210.89 L 2016.86,2210.89 L 2016.86,497.539"/>
		</g>
		<g clip-path="url(#b)">
			<g clip-path="url(#c)">
				<path fill="#3c6abc" fill-opacity="1" fill-rule="nonzero" stroke="none" d="M -77.6602,-78.3906 L 2306.8,-78.3906 L 2306.8,2611.98 L -77.6602,2611.98 L -77.6602,-78.3906"/>
			</g>
		</g>
		<g clip-path="url(#d)">
			<path fill="#272847" fill-opacity="1" fill-rule="nonzero" stroke="none" d="M 3118.82,402.789 L 9002.44,402.789 L 9002.44,2193.25 L 3118.82,2193.25 L 3118.82,402.789"/>
		</g>
	</g>
</svg>
